X:217
T:Ponies in the Forest
C:John Reischman
N:Transcribed by Mike Flak Tabledited by Mike Stangeland
L:1/8
Q:1/4=211
M:4/4
K:C
z4 [AD][AE] z[AE] |: "C"[AE][AG] z[AG] [AG][AG] [A2G2] | [AG][AG] [AG][AG] [AE][AG] z[AG] | 
"D5add9"[AG][AA] [AA][AA] [AA][AA] [A2A2] | [AA][AA] [AA][AA] [AD][AE] [AE][AE] | 
"C"[AE][AG] [AG][AG] [AG][AG] [A2G2] | [AG][AG] [AG][AG] [AE][AG] A[AG] |1 [A8D8] | 
D4 DE EE :|2 D8 | D8 |: "D5add9"DG Ad AG ED | "C"EG ED C2 [ADC][ADC] | "D5add9"DG Ad AG ED | 
"Am"A,C zC A,2 [DA,][DA,] | "D5add9"DG Ad AG ED | "C"EG ED C2 [ADC][ADC] | "Am"A,C DE "C"GE DC | 
"G"[D2G,2] [D2G,2] G,G, G,G, :|: "Am"A,C DE DC A,G, | {G}A2 G2 ED CG, | "Am"A,C DE DC A,2 | 
"C"EG ED C2 [ADC][ADC] | "Am"A,C DE DC A,G, | {G}A2 G2 ED CG, | "Am"A,C DE "C"GE DC | 
"G"[D2G,2] [D2G,2] G,G, G,G, :| "Am"A,C DE "C"GE DC | "G"[D2G,2] [D2G,2] G,G, G,G, | 
"Am"A,C DE "C"GE DC | "G"[D8G,8] |: "Am"Ac de dc A2 | a2 g2 ed c2 | "Am"Ac de dc A2 | 
"C"eg ed c4 | "Am"Ac de dc A2 | a2 g2 ed c2 | "Am"Ac de "C"ge dc | "G"G2 G2 G4 :| 
 

